icon/gr/node.svg

<svg xmlns="http://www.w3.org/2000/svg" viewBox="0 0 24 24" height="1em" width="1em">
  <path fill="#689F63" d="M11.8988601,24 C11.5774615,24 11.2582643,23.9156879 10.9764902,23.7534477 L8.04053599,22.0152536 C7.60202502,21.7700221 7.81599724,21.6832885 7.96062661,21.6333176 C8.54530789,21.4285911 8.66396121,21.3823625 9.28804684,21.0279435 C9.35364738,20.9905204 9.43950043,21.0037286 9.50664192,21.043353 L11.7621556,22.3817801 C11.843606,22.4258073 11.9591774,22.4258073 12.034684,22.3817801 L20.8291183,17.3054433 C20.9105686,17.2592148 20.9634012,17.1645563 20.9634012,17.0676964 L20.9634012,6.91942563 C20.9634012,6.81816306 20.9105686,6.72790729 20.8273572,6.677276 L12.0364451,1.60534197 C11.9549948,1.55691204 11.8471281,1.55691204 11.7656778,1.60534197 L2.97652685,6.677276 C2.89133421,6.72570593 2.83718075,6.82036442 2.83718075,6.91722427 L2.83718075,17.0654951 C2.83718075,17.1623549 2.89001339,17.254812 2.97366508,17.3010406 L5.3819532,18.6923003 C6.6895612,19.3461043 7.48865497,18.5756282 7.48865497,17.8007494 L7.48865497,7.78456021 C7.48865497,7.64147179 7.60092434,7.53140378 7.74401276,7.53140378 L8.85790105,7.53140378 C8.99658675,7.53140378 9.11105748,7.64147179 9.11105748,7.78456021 L9.11105748,17.8051521 C9.11105748,19.5486294 8.16006985,20.5502483 6.50684829,20.5502483 C5.99833407,20.5502483 5.59768651,20.5502483 4.4793955,19.9999083 L2.17236995,18.6702867 C1.60221764,18.3400826 1.25,17.7237018 1.25,17.0654951 L1.25,6.91722427 C1.25,6.25681619 1.60221764,5.64043532 2.17236995,5.314634 L10.9756096,0.236095888 C11.5325538,-0.0786986292 12.2722108,-0.0786986292 12.8247522,0.236095888 L21.6169851,5.31683536 C22.184936,5.64483804 22.539355,6.25901755 22.539355,6.91942563 L22.539355,17.0676964 C22.539355,17.7259031 22.184936,18.3400826 21.6169851,18.6702867 L12.8247522,23.7488248 C12.5429781,23.9117255 12.2237809,23.9953771 11.8979796,23.9953771 L11.8988601,24 Z M14.6153387,17.007159 C10.7673609,17.007159 9.9605624,15.2407875 9.9605624,13.7592721 C9.9605624,13.618385 10.0741526,13.5061157 10.2152598,13.5061157 L11.3511617,13.5061157 C11.4766392,13.5061157 11.5823045,13.5974721 11.6021167,13.7214087 C11.7738228,14.8788839 12.2845384,15.4626847 14.6113762,15.4626847 C16.4649216,15.4626847 17.2530085,15.0439859 17.2530085,14.0610786 C17.2530085,13.495329 17.0284698,13.0748692 14.1490906,12.7930951 C11.7408024,12.5553482 10.2526829,12.0248203 10.2526829,10.0986301 C10.2526829,8.32433374 11.7496079,7.26768082 14.2569572,7.26768082 C17.072497,7.26768082 18.4681594,8.24508478 18.6442682,10.3451825 C18.6508723,10.4178273 18.624456,10.4882709 18.576026,10.5411035 C18.5275961,10.5917348 18.4593539,10.6225539 18.3889104,10.6225539 L17.2464044,10.6225539 C17.127531,10.6225539 17.0240671,10.5389022 16.9998521,10.4244314 C16.7246821,9.20707921 16.0598713,8.81743844 14.2525545,8.81743844 C12.2295044,8.81743844 11.9939589,9.52187372 11.9939589,10.0502002 C11.9939589,10.690796 12.2713303,10.8779116 15.001017,11.2389347 C17.7042874,11.5977564 18.9876804,12.1040693 18.9876804,14.0038432 C18.9876804,15.9190266 17.3894929,17.0175054 14.6025708,17.0175054 L14.6153387,17.007159 Z"/>
</svg>

<svg xmlns="http://www.w3.org/2000/svg" width="24" height="24"><path fill="#689F63" d="M11.899 24c-.322 0-.64-.084-.923-.247l-2.935-1.738c-.439-.245-.225-.332-.08-.382.584-.204.703-.25 1.327-.605.066-.037.152-.024.219.015l2.255 1.339a.298.298 0 0 0 .273 0l8.794-5.077a.277.277 0 0 0 .134-.237V6.919a.282.282 0 0 0-.136-.242l-8.79-5.072a.27.27 0 0 0-.271 0l-8.79 5.072a.28.28 0 0 0-.139.24v10.148c0 .097.053.19.137.236l2.408 1.391c1.308.654 2.107-.116 2.107-.891V7.785a.25.25 0 0 1 .255-.254h1.114c.139 0 .253.11.253.254v10.02c0 1.744-.95 2.745-2.604 2.745-.509 0-.91 0-2.028-.55l-2.307-1.33a1.86 1.86 0 0 1-.922-1.605V6.917c0-.66.352-1.277.922-1.602L10.976.236a1.928 1.928 0 0 1 1.849 0l8.792 5.08c.568.329.922.943.922 1.603v10.149a1.86 1.86 0 0 1-.922 1.602l-8.792 5.079a1.848 1.848 0 0 1-.927.246V24Zm2.716-6.993c-3.848 0-4.654-1.766-4.654-3.248 0-.14.113-.253.254-.253h1.136c.126 0 .231.091.251.215.172 1.158.683 1.742 3.01 1.742 1.853 0 2.641-.419 2.641-1.402 0-.566-.225-.986-3.104-1.268-2.408-.238-3.896-.768-3.896-2.694 0-1.775 1.497-2.831 4.004-2.831 2.815 0 4.211.977 4.387 3.077a.256.256 0 0 1-.255.278h-1.143a.252.252 0 0 1-.246-.199c-.275-1.217-.94-1.607-2.747-1.607-2.023 0-2.259.705-2.259 1.233 0 .64.277.828 3.007 1.189 2.703.359 3.987.865 3.987 2.765 0 1.915-1.599 3.014-4.385 3.014l.012-.01Z"/></svg>
